X:1935
T:Bourrée valsée d'Issoudun
R:Bourrée à 3 temps
A:Massif Central
O:France
M:3/8
L:1/8
Q:1/4=120
K:G
D|G2F|G2 F/2G/2|ABG|A2D|A2B|A2 G/2F/2|EFE|D2:|
|:B|BdB|AcA|GG/2F/2G/2A/2|BGB|AcA|G/2F/2EF|G2:||


